X:67
T:Dick Gossip
Z: id:dc-reel-61
M:C
L:1/8
K:D Major
AG|F2AF GFED|F2AF GFED|E3F GFED|EDEF GFED|!
F2AF GFED|F2AF GFED|Bdef gfec|dfec d2:|!
ef|gBB2 gBaB|gBB2 gfed|cAeA fAed|cdef gfef|!
gBB2 gBaB|gBB2 gfed|cdef gfec|dfec d2:|!